assets/Rescue workers helmet/Flat/rescue_workers_helmet_flat.svg

<svg width="32" height="32" viewBox="0 0 32 32" fill="none" xmlns="http://www.w3.org/2000/svg">
<path d="M8.81009 18.2778C9.20895 18.2778 9.53229 18.6012 9.53229 19V22.03C9.53229 25.8612 12.6389 28.9678 16.4701 28.9678C20.3012 28.9678 23.4079 25.8612 23.4079 22.03V19C23.4079 18.6012 23.7312 18.2778 24.1301 18.2778C24.5289 18.2778 24.8523 18.6012 24.8523 19V22.03C24.8523 26.6589 21.0989 30.4122 16.4701 30.4122C11.8412 30.4122 8.08789 26.6589 8.08789 22.03V19C8.08789 18.6012 8.41123 18.2778 8.81009 18.2778Z" fill="#9B9B9B"/>
<path d="M20.3102 4.90002H12.6302C9.05016 4.90002 6.16016 7.80003 6.16016 11.37V17.05H26.7902V11.37C26.7802 7.80003 23.8802 4.90002 20.3102 4.90002Z" fill="#CA0B4A"/>
<path d="M18.0101 3H14.9401C13.1001 3 11.6001 4.49 11.6001 6.34V17.06H21.3401V6.34C21.3401 4.5 19.8501 3 18.0101 3Z" fill="#F8312F"/>
<path d="M18.6803 9.4101H17.7103V8.44009C17.7103 7.76009 17.1603 7.21008 16.4803 7.21008C15.8003 7.21008 15.2503 7.76009 15.2503 8.44009V9.4101H14.2803C13.6003 9.4101 13.0503 9.96008 13.0503 10.6401C13.0503 11.3201 13.6003 11.8701 14.2803 11.8701H15.2503V12.8401C15.2503 13.5201 15.8003 14.0701 16.4803 14.0701C17.1603 14.0701 17.7103 13.5201 17.7103 12.8401V11.8701H18.6803C19.3603 11.8701 19.9103 11.3201 19.9103 10.6401C19.9103 9.97008 19.3603 9.4101 18.6803 9.4101Z" fill="white"/>
<path d="M26.84 16.0601H6.09C4.94 16.0601 4 17.0001 4 18.1501C4 19.3001 4.94 20.2401 6.09 20.2401H26.84C27.99 20.2401 28.93 19.3001 28.93 18.1501C28.93 16.9901 28 16.0601 26.84 16.0601Z" fill="#F8312F"/>
<path d="M10.1026 26.4927C10.6204 25.9749 11.4597 25.9749 11.9775 26.4927C13.1324 27.6476 14.7204 28.3644 16.4701 28.3644C18.2236 28.3644 19.8087 27.6549 20.9593 26.496C21.4752 25.9765 22.3145 25.9734 22.8341 26.4893C23.3537 27.0052 23.3567 27.8445 22.8408 28.3641C21.2114 30.0053 18.9565 31.0158 16.4701 31.0158C13.9798 31.0158 11.7277 29.9926 10.1026 28.3675C9.58493 27.8498 9.58493 27.0104 10.1026 26.4927Z" fill="#990838"/>
</svg>

<svg xmlns="http://www.w3.org/2000/svg" width="32" height="32" fill="none"><path fill="#9B9B9B" d="M8.81 18.278c.399 0 .722.323.722.722v3.03a6.938 6.938 0 0 0 13.876 0V19a.722.722 0 0 1 1.444 0v3.03a8.383 8.383 0 0 1-16.764 0V19c0-.399.323-.722.722-.722Z"/><path fill="#CA0B4A" d="M20.31 4.9h-7.68c-3.58 0-6.47 2.9-6.47 6.47v5.68h20.63v-5.68c-.01-3.57-2.91-6.47-6.48-6.47Z"/><path fill="#F8312F" d="M18.01 3h-3.07a3.34 3.34 0 0 0-3.34 3.34v10.72h9.74V6.34C21.34 4.5 19.85 3 18.01 3Z"/><path fill="#fff" d="M18.68 9.41h-.97v-.97a1.23 1.23 0 1 0-2.46 0v.97h-.97a1.23 1.23 0 1 0 0 2.46h.97v.97a1.23 1.23 0 1 0 2.46 0v-.97h.97a1.23 1.23 0 1 0 0-2.46Z"/><path fill="#F8312F" d="M26.84 16.06H6.09C4.94 16.06 4 17 4 18.15s.94 2.09 2.09 2.09h20.75c1.15 0 2.09-.94 2.09-2.09 0-1.16-.93-2.09-2.09-2.09Z"/><path fill="#990838" d="M10.103 26.493a1.326 1.326 0 0 1 1.874 0 6.34 6.34 0 0 0 4.493 1.871c1.754 0 3.339-.71 4.49-1.868a1.326 1.326 0 0 1 1.88 1.868 8.949 8.949 0 0 1-6.37 2.652 8.99 8.99 0 0 1-6.367-2.648 1.326 1.326 0 0 1 0-1.875Z"/></svg>
